src/images/pacmanCircle.svg

<svg width="45" height="42" viewBox="0 0 45 42" fill="none" xmlns="http://www.w3.org/2000/svg">
<path d="M10 2.47051H15V0H30V2.47051H35V4.94124H37.5V7.41175H40V9.88226H42.5V14.8235H45V27.1765H42.5V32.1177H40V34.5882H37.5V37.0588H35V39.5295H30V42H15V39.5295H10V37.0588H7.5V34.5882H5V32.1177H2.5V27.1765H0V14.8235H2.5V9.88226H5V7.41175H7.5V4.94124H10V2.47051Z" fill="#FFE600"/>
</svg>

<svg width="45" height="42" viewBox="0 0 45 42" fill="none" xmlns="http://www.w3.org/2000/svg"><path d="M10 2.5h5V0h15v2.5h5v2.4h2.5v2.5H40V10h2.5v5H45v12.3h-2.5v5H40v2.4h-2.5V37H35v2.4h-5V42H15v-2.5h-5v-2.4H7.5v-2.5H5V32H2.5v-5H0V14.9h2.5v-5H5V7.5h2.5V5H10V2.5z" fill="#FFE600"/></svg>
